svg/nature/wreath_fill.svg

<?xml version="1.0" encoding="UTF-8"?>
<svg width="24px" height="24px" viewBox="0 0 24 24" version="1.1" xmlns="http://www.w3.org/2000/svg" xmlns:xlink="http://www.w3.org/1999/xlink">
    <title>wreath_fill</title>
    <g id="Icon" stroke="none" stroke-width="1" fill="none" fill-rule="evenodd">
        <g id="Nature" transform="translate(-144.000000, -50.000000)">
            <g id="wreath_fill" transform="translate(144.000000, 50.000000)">
                <path d="M24,0 L24,24 L0,24 L0,0 L24,0 Z M12.5935,23.2578 L12.5819,23.2595 L12.5109,23.295 L12.4919,23.2987 L12.4767,23.295 L12.4057,23.2595 C12.3958,23.2564 12.387,23.259 12.3821,23.2649 L12.378,23.2758 L12.3609,23.7031 L12.3659,23.7235 L12.3769,23.7357 L12.4805,23.8097 L12.4953,23.8136 L12.5071,23.8097 L12.6107,23.7357 L12.6233,23.7197 L12.6267,23.7031 L12.6096,23.2758 C12.6076,23.2657 12.601,23.2593 12.5935,23.2578 Z M12.8584,23.1453 L12.8445,23.1473 L12.6598,23.2397 L12.6499,23.2499 L12.6472,23.2611 L12.6651,23.6906 L12.6699,23.7034 L12.6784,23.7105 L12.8793,23.8032 C12.8914,23.8069 12.9022,23.803 12.9078,23.7952 L12.9118,23.7812 L12.8777,23.1665 C12.8753,23.1546 12.8674,23.147 12.8584,23.1453 Z M12.143,23.1473 C12.1332,23.1424 12.1222,23.1453 12.1156,23.1526 L12.1099,23.1665 L12.0758,23.7812 C12.0751,23.7927 12.0828,23.8019 12.0926,23.8046 L12.1083,23.8032 L12.3092,23.7105 L12.3186,23.7024 L12.3225,23.6906 L12.3404,23.2611 L12.3372,23.2485 L12.3278,23.2397 L12.143,23.1473 Z" id="MingCute" fill-rule="nonzero"></path>
                <path d="M14.4255637,2.76063082 L14.5945,2.89695 C14.9235875,3.17734375 15.2970813,3.34953172 15.7138424,3.4144183 L15.8951,3.43566 C17.7855828,3.58652207 19.3002862,5.04118266 19.5430928,6.90371324 L19.5642,7.10479 C19.5985875,7.53571875 19.7409281,7.92155984 19.989748,8.2621525 L20.1029,8.40535 C21.377,9.90038 21.377,12.0993 20.1029,13.5943 C19.82255,13.9233 19.6503828,14.2967828 19.5854605,14.7135426 L19.5642,14.8948 C19.4133862,16.7853793 17.9586713,18.2999929 16.096173,18.5428831 L15.8951,18.564 C15.4316,18.601 15.0016,18.7554 14.6434,19.0611 L14.513,19.1703 L14.513,19.1703 C14.5566,19.4459 14.7054,19.6401 14.8902,19.7942 C15.0002,19.8858 15.1205184,19.9553592 15.2071015,19.999519 L15.3264,20.0546 L15.3264,20.0546 C15.8439,20.2331 16.1223,20.7955 15.9487,21.3161 C15.7761,21.8342 15.1996,22.121 14.6821,21.948 C14.2924,21.8169 13.924,21.5924 13.6099,21.3306 C13.2558,21.0355 12.8787,20.5982 12.6679,20.0023 C12.226,20.0769 11.7741,20.0769 11.3322,20.0023 C11.1214,20.5982 10.7443,21.0355 10.3902,21.3306 C10.0631,21.6032 9.70408,21.7842 9.31629,21.9486 C8.79234,22.1232 8.22602,21.84 8.05137,21.3161 C7.89024429,20.8326857 8.11878429,20.3132296 8.56657038,20.0985709 L8.73509726,20.0278239 C8.81880163,19.9887612 8.97242,19.9087 9.10987,19.7942 C9.29475,19.6401 9.44352,19.4459 9.48708,19.1703 L9.35676,19.0611 L9.35676,19.0611 C9.043335,18.793525 8.67492281,18.6419422 8.27720824,18.5834402 L8.10504,18.564 C6.21451862,18.4130897 4.69986045,16.9584647 4.45701204,15.0958826 L4.4359,14.8948 C4.4015125,14.46395 4.25917953,14.0781187 4.01034813,13.7375072 L3.89719,13.5943 C2.62314,12.0993 2.62314,9.90038 3.89719,8.40535 C4.17758375,8.07632375 4.34977172,7.70284531 4.4146583,7.28606025 L4.4359,7.10479 C4.58676207,5.21426862 6.04143199,3.69961977 7.9039542,3.45677201 L8.10503,3.43566 C8.53595875,3.4012725 8.9218075,3.25893953 9.26239537,3.01010812 L9.40559,2.89695 C10.8452293,1.67007741 12.9375841,1.62463768 14.4255637,2.76063082 Z M16.2427,13.8283 C15.8522,13.4378 15.219,13.4378 14.8285,13.8283 C14.4680385,14.1887615 14.4403107,14.7560207 14.7453166,15.1482973 L14.8285,15.2425 L15.793,16.207 C16.1835,16.5975 16.8166,16.5975 17.2072,16.207 C17.5676615,15.8465385 17.5953893,15.2792793 17.2903834,14.8870027 L17.2072,14.7928 L16.2427,13.8283 Z M9.17164,13.8283 C8.81115077,13.4677462 8.24392355,13.4400112 7.85163634,13.7450953 L7.75743,13.8283 L6.79295,14.7928 C6.40243,15.1833 6.40243,15.8165 6.79296,16.207 C7.15344923,16.5674615 7.72067645,16.5951893 8.11296366,16.2901834 L8.20717,16.207 L9.17166,15.2425 C9.56218,14.8519 9.56217,14.2188 9.17164,13.8283 Z M13.001362,7.84332315 L12.8875,7.75618 C12.4126286,7.35149929 11.7302148,7.32259352 11.2256945,7.6694627 L11.1126,7.75618 C10.9299333,7.911805 10.7103222,8.0161175 10.4761046,8.05982352 L10.334,8.0787 C9.70883467,8.12857733 9.20385653,8.59521164 9.0958478,9.20175569 L9.07888,9.33377 C9.05979667,9.57295333 8.97823417,9.8020325 8.84350384,9.99856537 L8.75636,10.1124 C8.35167929,10.5872714 8.32277352,11.2697714 8.6696427,11.7743041 L8.75636,11.8874 C8.911985,12.0699833 9.01630444,12.28965 9.06000699,12.5238884 L9.07888,12.666 C9.12876667,13.2911467 9.59539289,13.79608 10.2019765,13.9041235 L10.334,13.9211 C10.5731667,13.9401833 10.8021944,14.0216972 10.9987454,14.1564403 L11.1126,14.2436 C11.5874714,14.6482714 12.2698852,14.6771765 12.7744055,14.3303153 L12.8875,14.2436 C13.0701667,14.0879333 13.2898472,13.9836556 13.524088,13.9399681 L13.6662,13.9211 C14.2912533,13.8711667 14.7962676,13.4045809 14.9042409,12.7980192 L14.9212,12.666 C14.9402833,12.4268333 15.0218667,12.1977361 15.1566329,12.0012199 L15.2438,11.8874 C15.6484714,11.4125286 15.6773765,10.7300286 15.3305153,10.2254959 L15.2438,10.1124 C15.0881333,9.92978333 14.9837861,9.71013194 14.9400755,9.47588796 L14.9212,9.33377 C14.87136,8.70865133 14.4046933,8.2036676 13.7982017,8.09566604 L13.6662,8.0787 C13.4270333,8.05960833 13.1979361,7.97805139 13.001362,7.84332315 Z M15.793,5.79277 L14.8285,6.75726 C14.4379,7.14779 14.4379,7.78095 14.8285,8.17148 C15.219,8.562 15.8522,8.562 16.2427,8.17148 L17.2072,7.20698 C17.5977,6.81646 17.5977,6.1833 17.2072,5.79277 C16.8166,5.40225 16.1835,5.40225 15.793,5.79277 Z M8.20717,5.79277 C7.81664,5.40225 7.18348,5.40225 6.79296,5.79277 C6.43247077,6.15325923 6.40474083,6.72048645 6.70977018,7.11278152 L6.79296,7.20699 L7.75742,8.17145 C8.14794,8.56197 8.7811,8.56197 9.17163,8.17145 C9.53211,7.81096077 9.55983923,7.24373355 9.25481769,6.85143848 L9.17163,6.75723 L8.20717,5.79277 Z" id="形状" fill="#09244B"></path>
            </g>
        </g>
    </g>
</svg>

<svg xmlns="http://www.w3.org/2000/svg" width="24" height="24"><g fill="none" fill-rule="evenodd"><path d="M24 0v24H0V0h24ZM12.594 23.258l-.012.002-.071.035-.02.004-.014-.004-.071-.036c-.01-.003-.019 0-.024.006l-.004.01-.017.428.005.02.01.013.104.074.015.004.012-.004.104-.074.012-.016.004-.017-.017-.427c-.002-.01-.009-.017-.016-.018Zm.264-.113-.014.002-.184.093-.01.01-.003.011.018.43.005.012.008.008.201.092c.012.004.023 0 .029-.008l.004-.014-.034-.614c-.003-.012-.01-.02-.02-.022Zm-.715.002a.023.023 0 0 0-.027.006l-.006.014-.034.614c0 .012.007.02.017.024l.015-.002.201-.093.01-.008.003-.011.018-.43-.003-.012-.01-.01-.184-.092Z"/><path fill="#09244B" d="m14.426 2.76.168.137c.33.28.703.453 1.12.517l.181.022a4 4 0 0 1 3.648 3.468l.021.2c.035.432.177.818.426 1.158l.113.143a4 4 0 0 1 0 5.19c-.28.328-.453.702-.518 1.119l-.02.18a4 4 0 0 1-3.469 3.649l-.2.021a2.15 2.15 0 0 0-1.253.497l-.13.11c.044.275.192.47.377.623.11.092.23.161.317.206l.12.055a1 1 0 0 1 .622 1.261 1.01 1.01 0 0 1-1.267.632 3.408 3.408 0 0 1-1.072-.617 3.077 3.077 0 0 1-.942-1.329 4.014 4.014 0 0 1-1.336 0 3.077 3.077 0 0 1-.942 1.329c-.327.272-.686.453-1.074.618a1 1 0 0 1-.75-1.85l.17-.071c.083-.04.236-.12.374-.234.185-.154.334-.348.377-.624l-.13-.109a2.104 2.104 0 0 0-1.08-.478l-.172-.019a4 4 0 0 1-3.648-3.468l-.021-.201a2.224 2.224 0 0 0-.426-1.157l-.113-.144a4 4 0 0 1 0-5.189c.28-.329.453-.702.518-1.119l.02-.181a4 4 0 0 1 3.469-3.648l.201-.021c.431-.035.817-.177 1.157-.426l.144-.113a4 4 0 0 1 5.02-.136Zm1.817 11.068a1 1 0 0 0-1.498 1.32l.084.095.964.964a1 1 0 0 0 1.497-1.32l-.083-.094-.964-.965Zm-7.071 0a1 1 0 0 0-1.32-.083l-.095.083-.964.965a1 1 0 0 0 1.32 1.497l.094-.083.965-.965a1 1 0 0 0 0-1.414Zm3.83-5.985-.115-.087a1.368 1.368 0 0 0-1.661-.087l-.113.087c-.183.156-.403.26-.637.304l-.142.019c-.625.05-1.13.516-1.238 1.123l-.017.132c-.02.239-.1.468-.235.665l-.088.113a1.368 1.368 0 0 0-.086 1.662l.086.113c.156.183.26.403.304.637l.019.142c.05.625.516 1.13 1.123 1.238l.132.017c.24.02.468.1.665.235l.114.088a1.368 1.368 0 0 0 1.661.086l.114-.086c.182-.156.402-.26.636-.304l.142-.019a1.368 1.368 0 0 0 1.238-1.123l.017-.132c.02-.24.1-.468.236-.665l.087-.114a1.368 1.368 0 0 0 .087-1.662l-.087-.113a1.368 1.368 0 0 1-.304-.636l-.019-.142a1.368 1.368 0 0 0-1.123-1.238l-.132-.017c-.239-.02-.468-.1-.665-.236Zm2.791-2.05-.964.964a1 1 0 1 0 1.414 1.414l.964-.964a1 1 0 0 0-1.414-1.414Zm-7.586 0a1 1 0 0 0-1.497 1.32l.083.094.964.964a1 1 0 0 0 1.498-1.32l-.083-.094-.965-.964Z"/></g></svg>
